X: 1
T:Cliffs of Doneen  "CYMRU 21:37 09/09/97"
M:6/8
L:1/8
Q:80
C:Irish Trad.
S:Slow Air
K:HP
|: {gef}e{A}e/2f/2a/2{e}f3/2e/2d|
{g}B/2{e}G3/2{d}B{G}A3/2{g}f/2g|
{g}a3/2g/2af/2{g}A3/2d|  !
{gef}e{A}e/2d/2e/2{g}f3/2{g}f/2g|
{ag}a3/2g/2af/2{g}A3/2d|
{gef}e{A}e/2d/2e/2{g}fg/2{a}f/2e/2|  !
{g}de/2{g}f/2a/2{e}f3/2e/2d|
{g}B/2{e}G3/2{d}B{G}A3:|
